X:2506
T:Haste to the Wedding
P:The Gadie Water
C:A. Troup
R:Jig (8x32)
B:RSCDS 25-6
Z:Anselm Lingnau <anselm@strathspey.org>
M:6/8
L:1/8
K:C
|:G|"C"[cE]dc "F"[cF]BA|"C"[GE]AG GEG|[cG]de [gc]ec|"G"[BF]dd [dG]BG|\
  "C"[cE]dc "F"[cF]BA|"C"[GE]A"F"G "C"Ggf|
                                 "C/G"[eG]dc "Dm"[dF]B"G"G|"C"[G2E2] c c2:|\
e|"C"[gG]ec [cG]eg|"F"[aA]fa "C"[g2G2] f|"C"[eG]dc "D"[c^F]de|"G"[dG]BG Gg>f|
  "C"[eG]dc "C7"[cG]eg|"F"[aA]f"G7"a "C"g2 f|\
                                  "C/G"[eG]dc "Dm"[dF]B"G"G|"C"[c3E3] c2 e|\
  "C"[gG]ec [cG]eg|"F"[aA]fa agf|
                        "C"[eG]dc "D7"[c^F]de|"G"[dD]GB GA_B|\
  "F"AFA c=BA|"C/E"GEG Ggf|"G"[eG]dc [dF]cB|"C"[c3E3] c2|]

